Catalina-light/actions/16/view-pim-contacts.svg

<svg xmlns="http://www.w3.org/2000/svg" width="16" height="16" viewBox="0 0 16 16">
 <defs>
  <style id="current-color-scheme" type="text/css">
   .ColorScheme-Text { color:#5c616c; } .ColorScheme-Highlight { color:#5294e2; }
  </style>
 </defs>
 <path style="fill:currentColor" class="ColorScheme-Text" d="M 0 1 L 0 15 C 5.3333 14.998 10.667 15.005906 16 15.003906 L 16 1.0039062 C 10.667 1.0058063 5.333 0.998 0 1 z M 5 5 C 6.1046 5 7 5.8955 7 7 C 7 8.1045 6.1046 9 5 9 C 3.8954 9 3 8.1045 3 7 C 3 5.8955 3.8954 5 5 5 z M 5 10 C 8.9998 9.9982 9 12.400391 9 12.400391 L 9 13 L 1 13 L 1 12.400391 C 1 12.400391 0.99989 10.002 5 10 z"/>
</svg>

<svg width="16" height="16" viewBox="0 0 16 16" xmlns="http://www.w3.org/2000/svg">
<defs>
<style id="current-color-scheme" type="text/css">.ColorScheme-Text { color:#5c616c; } .ColorScheme-Highlight { color:#5294e2; }</style>
</defs>
<path class="ColorScheme-Text" d="m0 1v14c5.3333-2e-3 10.667 0.005906 16 0.003906v-14c-5.333 0.0019001-10.667-0.0059062-16-0.0039062zm5 4c1.1046 0 2 0.8955 2 2s-0.8954 2-2 2-2-0.8955-2-2 0.8954-2 2-2zm0 5c3.9998-0.0018 4 2.4004 4 2.4004v0.59961h-8v-0.59961s-1.1e-4 -2.3984 4-2.4004z" fill="#363636"/>
</svg>
